image/02/Associates/Ripple.svg

<svg xmlns="http://www.w3.org/2000/svg" fill="none" viewBox="0 0 140 48" height="48" width="140">
<path fill="black" d="M57.8077 5C59.6288 5 61.1012 6.39594 61.1012 8.21847C61.1012 10.041 59.6289 11.4368 57.8077 11.4368C55.9865 11.4368 54.5141 10.041 54.5141 8.21847C54.5141 6.39594 55.9866 5 57.8077 5ZM60.3262 33.6946H55.2891V14.888H60.3262V33.6946ZM52.1124 19.3471C51.7637 19.2308 51.0275 19.1532 50.2913 19.1532C48.0826 19.1532 45.719 20.9436 45.719 23.1539V33.6943H40.682V14.8878H45.5254V16.7878C46.649 15.3919 48.7025 14.5 50.9887 14.5C51.5603 14.5041 52.1306 14.556 52.6937 14.6551L52.1124 19.3471ZM69.7036 16.4012C71.261 15.1465 73.2064 14.474 75.2056 14.4993C80.3191 14.4993 84.4261 18.7656 84.426 24.3107C84.426 26.8705 83.5364 29.1958 82.0634 30.9023C80.3972 32.8411 77.7243 34.083 74.9343 34.083C73.1088 34.1119 71.3294 33.5091 69.8967 32.3765V43H64.8592V14.8879H69.7036V16.4012ZM69.4078 24.3271C69.4078 27.3454 71.4643 29.5063 74.5933 29.5063C77.2641 29.5063 79.4296 27.1871 79.4296 24.3271C79.4296 21.4672 77.2641 19.148 74.5933 19.148C71.4643 19.148 69.4078 21.3089 69.4078 24.3271ZM114.998 33.695H109.961V6.16365H114.998V33.695ZM127.824 34.0821C130.73 34.0821 133.714 32.88 135.535 30.7085L132.668 27.8391C131.776 28.8085 130.071 30.0106 127.94 30.0106C125.267 30.0106 123.136 28.188 122.864 25.5513H135.883C135.964 25.0774 136.003 24.5973 136 24.1165C136 18.8817 132.319 14.5 127.127 14.5C121.547 14.5 117.982 19.0757 117.982 24.3105C117.982 30.2045 122.206 34.0821 127.824 34.0821ZM127.127 18.5716C129.18 18.5716 130.691 20.2002 130.846 21.8676H123.097C123.329 20.1615 125.034 18.5716 127.127 18.5716ZM97.7575 14.4993C95.7584 14.474 93.813 15.1465 92.2557 16.4012V14.8879H87.4111V43H92.4487V32.3765C93.8813 33.5091 95.6608 34.1119 97.4863 34.083C100.276 34.083 102.949 32.8411 104.615 30.9023C106.088 29.1958 106.978 26.8705 106.978 24.3107C106.978 18.7656 102.871 14.4993 97.7575 14.4993ZM97.1452 29.5063C94.0163 29.5063 91.9597 27.3454 91.9597 24.3271C91.9597 21.3089 94.0163 19.148 97.1452 19.148C99.816 19.148 101.981 21.4672 101.981 24.3271C101.981 27.1871 99.8161 29.5063 97.1452 29.5063ZM26.611 25.9507C27.8796 25.995 29.1603 26.1855 30.2976 26.8426C31.3189 27.4327 32.167 28.2815 32.7566 29.3035C33.3463 30.3256 33.6567 31.4849 33.6567 32.6651C33.6567 33.8453 33.3463 35.0046 32.7566 36.0267C32.167 37.0487 31.3189 37.8975 30.2976 38.4875C29.2763 39.0776 28.1178 39.3883 26.9385 39.3883C25.7593 39.3883 24.6008 39.0776 23.5795 38.4875C22.5582 37.8975 21.7101 37.0487 21.1205 36.0267C20.5308 35.0046 20.2204 33.8453 20.2204 32.6651C20.2204 31.3627 20.6828 30.1642 21.2734 29.0526C21.975 27.7319 21.5838 26.1285 20.3181 25.3967C18.5936 24.3995 17.2256 25.5177 16.6779 26.3949C16.0108 27.4632 15.205 28.4641 14.0773 29.1157C13.056 29.7058 11.8975 30.0165 10.7182 30.0165C9.53892 30.0165 8.38041 29.7058 7.35911 29.1157C6.33781 28.5257 5.48972 27.6769 4.90007 26.6549C4.31042 25.6328 4 24.4734 4 23.2932C4 22.113 4.31042 20.9537 4.90007 19.9316C5.48972 18.9095 6.33781 18.0608 7.35911 17.4707C8.38041 16.8806 9.53892 16.57 10.7182 16.57C11.8975 16.57 13.056 16.8806 14.0773 17.4707C15.2054 18.1226 16.0111 19.1241 16.6785 20.1931C17.4687 21.4586 19.0506 21.9223 20.3182 21.19C22.0222 20.2055 21.7708 18.4699 21.274 17.5348C20.6833 16.423 20.2203 15.2242 20.2203 13.9216C20.2203 12.7414 20.5307 11.582 21.1203 10.5599C21.7099 9.5378 22.558 8.68903 23.5793 8.09891C24.6006 7.50879 25.7591 7.1981 26.9384 7.19808C28.1177 7.19805 29.2762 7.50869 30.2976 8.09877C31.3189 8.68886 32.167 9.53759 32.7567 10.5597C33.3463 11.5817 33.6568 12.7411 33.6568 13.9213C33.6568 15.1015 33.3463 16.2609 32.7567 17.283C32.167 18.3051 31.3189 19.1538 30.2976 19.7439C29.1607 20.4009 27.88 20.5916 26.6116 20.6359C25.1281 20.6877 23.9587 21.8496 23.9587 23.2933C23.9587 25.2309 25.5467 25.9135 26.611 25.9507Z" clip-rule="evenodd" fill-rule="evenodd"></path>
</svg>

<?xml version="1.0" encoding="utf-8"?>
<!-- Generator: Adobe Illustrator 23.0.6, SVG Export Plug-In . SVG Version: 6.00 Build 0)  -->
<svg version="1.1" id="Layer_1" xmlns="http://www.w3.org/2000/svg" xmlns:xlink="http://www.w3.org/1999/xlink" x="0px" y="0px"
	 viewBox="0 0 140 48" style="enable-background:new 0 0 140 48;" xml:space="preserve">
<style type="text/css">
	.st0{fill-rule:evenodd;clip-rule:evenodd;fill:#FFFFFF;}
</style>
<path class="st0" d="M57.8,5c1.8,0,3.3,1.4,3.3,3.2s-1.5,3.2-3.3,3.2c-1.8,0-3.3-1.4-3.3-3.2S56,5,57.8,5z M60.3,33.7h-5V14.9h5
	V33.7z M52.1,19.3c-0.3-0.1-1.1-0.2-1.8-0.2c-2.2,0-4.6,1.8-4.6,4v10.5h-5V14.9h4.8v1.9c1.1-1.4,3.2-2.3,5.5-2.3
	c0.6,0,1.1,0.1,1.7,0.2L52.1,19.3z M69.7,16.4c1.6-1.3,3.5-1.9,5.5-1.9c5.1,0,9.2,4.3,9.2,9.8c0,2.6-0.9,4.9-2.4,6.6
	c-1.7,1.9-4.3,3.2-7.1,3.2c-1.8,0-3.6-0.6-5-1.7V43h-5V14.9h4.8V16.4z M69.4,24.3c0,3,2.1,5.2,5.2,5.2c2.7,0,4.8-2.3,4.8-5.2
	c0-2.9-2.2-5.2-4.8-5.2C71.5,19.1,69.4,21.3,69.4,24.3z M115,33.7h-5V6.2h5V33.7z M127.8,34.1c2.9,0,5.9-1.2,7.7-3.4l-2.9-2.9
	c-0.9,1-2.6,2.2-4.7,2.2c-2.7,0-4.8-1.8-5.1-4.5h13c0.1-0.5,0.1-1,0.1-1.4c0-5.2-3.7-9.6-8.9-9.6c-5.6,0-9.1,4.6-9.1,9.8
	C118,30.2,122.2,34.1,127.8,34.1z M127.1,18.6c2.1,0,3.6,1.6,3.7,3.3h-7.7C123.3,20.2,125,18.6,127.1,18.6z M97.8,14.5
	c-2,0-3.9,0.6-5.5,1.9v-1.5h-4.8V43h5V32.4c1.4,1.1,3.2,1.7,5,1.7c2.8,0,5.5-1.2,7.1-3.2c1.5-1.7,2.4-4,2.4-6.6
	C107,18.8,102.9,14.5,97.8,14.5z M97.1,29.5c-3.1,0-5.2-2.2-5.2-5.2c0-3,2.1-5.2,5.2-5.2c2.7,0,4.8,2.3,4.8,5.2
	C102,27.2,99.8,29.5,97.1,29.5z M26.6,26c1.3,0,2.5,0.2,3.7,0.9c1,0.6,1.9,1.4,2.5,2.5c0.6,1,0.9,2.2,0.9,3.4c0,1.2-0.3,2.3-0.9,3.4
	c-0.6,1-1.4,1.9-2.5,2.5c-1,0.6-2.2,0.9-3.4,0.9c-1.2,0-2.3-0.3-3.4-0.9c-1-0.6-1.9-1.4-2.5-2.5c-0.6-1-0.9-2.2-0.9-3.4
	c0-1.3,0.5-2.5,1.1-3.6c0.7-1.3,0.3-2.9-1-3.7c-1.7-1-3.1,0.1-3.6,1c-0.7,1.1-1.5,2.1-2.6,2.7c-1,0.6-2.2,0.9-3.4,0.9
	c-1.2,0-2.3-0.3-3.4-0.9c-1-0.6-1.9-1.4-2.5-2.5c-0.6-1-0.9-2.2-0.9-3.4c0-1.2,0.3-2.3,0.9-3.4c0.6-1,1.4-1.9,2.5-2.5
	c1-0.6,2.2-0.9,3.4-0.9c1.2,0,2.3,0.3,3.4,0.9c1.1,0.7,1.9,1.7,2.6,2.7c0.8,1.3,2.4,1.7,3.6,1c1.7-1,1.5-2.7,1-3.7
	c-0.6-1.1-1.1-2.3-1.1-3.6c0-1.2,0.3-2.3,0.9-3.4s1.4-1.9,2.5-2.5c1-0.6,2.2-0.9,3.4-0.9c1.2,0,2.3,0.3,3.4,0.9
	c1,0.6,1.9,1.4,2.5,2.5c0.6,1,0.9,2.2,0.9,3.4s-0.3,2.3-0.9,3.4c-0.6,1-1.4,1.9-2.5,2.5c-1.1,0.7-2.4,0.8-3.7,0.9
	c-1.5,0.1-2.7,1.2-2.7,2.7C24,25.2,25.5,25.9,26.6,26z"/>
</svg>
